X: 1
T: Miss Stewart of Bombay
C: William Marshall
R: jig
Z: 2008 John Chambers <jc:trillian.mit.edu>
M: 6/8
L: 1/8
K: D
|:"D"d2D D2F | AFD D2F | "Em"B,2E "(E7)"EFD | "A7"C3 A,2f \
| "D"d2D D2F | AFD D2F | "Em"Egf "A7"edc | "D"d3 D3 :|
[|"D"d2d faf | dfd faf | "Em"B2e "(E7)"efd | "A7"c3 A2c \
| "D"d2d faf | "G"gbg "D"faf | "Em"ege "A7"cBc | "D"d3 D3 |]
[|"D"d2d faf | "Bm"dfd faf | "Em"B2e "E7"efd | "A7"c3 A2c \
| "D"def "A7"efg | "Bm"fed "F#m"cBA | "Em"B{c}dB "A7"c{d}ec | "D"d3 D3 |]

%%sep 1 1 500

